X: 42265
T: Wearmouth Lasses
R: jig
M: 6/8
K: Gmajor
|:gfg dBd|cAc B2G|DGB B2A|Ace e2d|
gfg dBd|cAc B2G|DGB ced|cBA G3:|
|:DGB B2A|Ace e2d|DGB B2A|Ace e2d|
gfg dBd|cAc B2G|DGB ced|cBA G3:|

